X:1
T:White House Blues
M:4/4
L:1/4
K:E
 G B2 B/2B/2| c B2 G| c B2 c| G4| C C C E| A/2 A/2- A2 A/2E/2| =G ^G2 E|\
 E2 F- E| G4| z B, D F| E4-| E4|

